X: 1
T: Eileen O Riordan's
R: slide
M: 12/8
L: 1/8
K: Gmix
|: D2 G GAG D2 G GAG| d2 G GAG F2 D E2 C | D2 G GAG D2 G GAG |1 ded cBA G3 G2F :|2 ded cBA G3 G2 B|
|: d2 d ded ~c2 c B2 c| d2 G GAG F2 D E2 C | D2 G GAG DGG GAG |1 ded cBA G3 G2B :|2 ded cBA G3 G2F |


